X: 530
U:~=!turn!
M:6/8
L:1/8
K:D
g | (f/g/a)f {/c}d2 f | (g/a/b)g e2 g | (f/g/a)f d2 f | ecA A2 g | (f/g/a)f {/c}d2 f | (g/a/b)g e2 g | f2 d {/f}g2 f | edc {/c}d2 :|


